X: 051
Q: "slow"
M: C
L: 1/8
K: G
V: 1
~G2G>A B2(TA>G) | TF>EF>G JA2D2 | ~G2G>A B>cTBA | G2(d>e) d2D2 |
(TGF)GA B2TA>G | TF>EFG JA2(TGF) | EFGE AGTF>E | D2(G>A) G2 :|
|: D2 |\
V: 2 clef=bass middle=d
z2 |\
z2d2 g2"6"c'2 | d'2zg d2d'>c' | ("6"b>a"6"b)"6"c' "6;4"d'2"5;3"d2 | g2G2 g2d'>c' |\
"6"b"6"a"6"b"6"f g2"6"c'2 |
d'3g d2"6"B2 | c2 "5 6"c'4 "6;5"c2 | "4"d2"3"D2 G2 :|\
|: z2 |\
z2d2 g"6"a"6"bc' | d'3g d>edc | "6"B2"6"F2
"6"BABG c3"6"d | "6"e"6"d"6"c"6"B "6"A3"6"B | c2 "5 6"c'4 "6;5"c2 | "4"d2"3"D2 G2 :|

